src/lib/packages/icons/src/assets/filled/comment-check-alt.svg

<svg width="24" height="24" viewBox="0 0 24 24" fill="none" xmlns="http://www.w3.org/2000/svg">
<path d="M12 4C7.03 4 3 6.99998 3 12.001C3 14.121 3.72995 15.892 4.94995 17.212C4.79995 18.172 4.25992 19.272 3.16992 20.152C2.83992 20.432 3.02996 20.9819 3.45996 20.9919C4.87996 21.0419 7.06991 20.852 8.40991 19.422C9.50991 19.802 10.72 20.002 12 20.002C16.97 20.002 21 17.001 21 12.001C21 6.99998 16.97 4 12 4ZM15.53 10.53L11.53 14.53C11.384 14.676 11.192 14.75 11 14.75C10.808 14.75 10.616 14.677 10.47 14.53L8.46997 12.53C8.17697 12.237 8.17697 11.762 8.46997 11.469C8.76297 11.176 9.23801 11.176 9.53101 11.469L11.001 12.939L14.4709 9.46899C14.7639 9.17599 15.239 9.17599 15.532 9.46899C15.825 9.76199 15.823 10.237 15.53 10.53Z" fill="currentColor"/>
</svg>

<svg xmlns="http://www.w3.org/2000/svg" width="24" height="24" fill="none"><path fill="currentColor" d="M12 4c-4.97 0-9 3-9 8.001 0 2.12.73 3.891 1.95 5.211-.15.96-.69 2.06-1.78 2.94-.33.28-.14.83.29.84 1.42.05 3.61-.14 4.95-1.57 1.1.38 2.31.58 3.59.58 4.97 0 9-3.001 9-8.001C21 7 16.97 4 12 4Zm3.53 6.53-4 4a.748.748 0 0 1-1.06 0l-2-2a.75.75 0 1 1 1.061-1.061l1.47 1.47 3.47-3.47a.75.75 0 1 1 1.059 1.061Z"/></svg>
